app/images/logos/made-in-ny-logo.svg

<svg xmlns="http://www.w3.org/2000/svg" viewBox="0 0 50 50" enable-background="new 0 0 50 50"><g fill="#fff"><path d="M0 25c0-13.8 11.2-25 25-25s25 11.2 25 25-11.2 25-25 25-25-11.2-25-25zm8.6-16.4c-4.2 4.2-6.8 10-6.8 16.4 0 6.4 2.6 12.2 6.8 16.4 4.2 4.2 10 6.8 16.4 6.8 6.4 0 12.2-2.6 16.4-6.8 4.2-4.2 6.8-10 6.8-16.4 0-6.4-2.6-12.2-6.8-16.4-4.2-4.2-10-6.8-16.4-6.8-6.4.1-12.2 2.6-16.4 6.8zM13.1 23.9l9.9 12.6v-12.6h2.4v16.6h-2.4l-9.9-12.6v12.6h-2.4v-16.6h2.4zM30.6 23.9l5.1 7.1 5-7.1h3l-6.9 9.4v7.1h-2.4v-7.1l-6.7-9.4h2.9zM12.9 11.7l1.7 2.5-.8.5-2.7-3.9.8-.5 2.7 1v-2.9l.8-.5 2.7 3.9-.8.5-1.7-2.5v2.9l-2.7-1zM20.7 6.1l1.3-.2 3.1 4.3-1.1.2-.6-.9-2.8.5-.3 1-1.1.2 1.5-5.1zm.2 2.8l1.8-.3-1.2-1.7-.6 2zM29.9 6.2c1.1.2 2.2 1 1.9 2.8-.3 1.5-1.5 2.2-2.9 1.9l-2.5-.6 1-4.7 2.5.6zm-2.5 3.4l1.6.4c.8.2 1.5-.2 1.7-1.1.2-1.1-.4-1.5-1.1-1.7l-1.6-.4-.6 2.8zM38.9 10.8l-.6.8-2.7-1.9-.5.7 1.4 1-.5.8-1.4-1-.5.8 2.8 2-.6.8-3.5-2.5 2.7-3.9 3.4 2.4zM22.2 15.2v4.7h-.9v-4.7h.9zM24.6 15.2h.9l2.6 3.2v-3.2h.9v4.7h-.9l-2.6-3.2v3.2h-.9v-4.7zM45 4.1h-.4v-.1c0-.2-.1-.3-.3-.3-.2 0-.3.2-.3.4s0 .3.2.4l.3.1c.5.1.5.3.5.7 0 .5-.2.8-.7.8-.4 0-.7-.3-.7-.7v-.1h.4v.1c0 .1.1.3.3.3.3 0 .3-.2.3-.4 0-.3 0-.4-.2-.4l-.3-.1c-.4-.1-.4-.4-.4-.7 0-.4.2-.8.7-.8.4 0 .7.3.7.6v.2zM45.5 3.3h.4l.5 1.5.6-1.5h.4v2.9h-.4v-1.8l-.4 1.2h-.2l-.4-1.2v1.7h-.4v-2.8z"/></g></svg>

<?xml version="1.0" encoding="utf-8"?>
<!-- Generator: Adobe Illustrator 17.1.0, SVG Export Plug-In . SVG Version: 6.00 Build 0)  -->
<!DOCTYPE svg PUBLIC "-//W3C//DTD SVG 1.1//EN" "http://www.w3.org/Graphics/SVG/1.1/DTD/svg11.dtd">
<svg version="1.1" id="Layer_1" xmlns="http://www.w3.org/2000/svg" xmlns:xlink="http://www.w3.org/1999/xlink" x="0px" y="0px"
	 viewBox="0 0 50 50" enable-background="new 0 0 50 50" xml:space="preserve">
<g>
	<path fill="#FFFFFF" d="M0,25C0,11.2,11.2,0,25,0l0,0c13.8,0,25,11.2,25,25l0,0c0,13.8-11.2,25-25,25l0,0C11.2,50,0,38.8,0,25L0,25
		z M8.6,8.6c-4.2,4.2-6.8,10-6.8,16.4l0,0c0,6.4,2.6,12.2,6.8,16.4l0,0c4.2,4.2,10,6.8,16.4,6.8l0,0c6.4,0,12.2-2.6,16.4-6.8l0,0
		c4.2-4.2,6.8-10,6.8-16.4l0,0c0-6.4-2.6-12.2-6.8-16.4l0,0c-4.2-4.2-10-6.8-16.4-6.8l0,0C18.6,1.9,12.8,4.4,8.6,8.6L8.6,8.6z"/>
	<g>
		<path fill="#FFFFFF" d="M13.1,23.9L23,36.5h0V23.9h2.4v16.6H23l-9.9-12.6h0v12.6h-2.4V23.9H13.1z"/>
		<path fill="#FFFFFF" d="M30.6,23.9l5.1,7.1l5-7.1h3l-6.9,9.4v7.1h-2.4v-7.1l-6.7-9.4H30.6z"/>
		<g>
			<path fill="#FFFFFF" d="M12.9,11.7L12.9,11.7l1.7,2.5l-0.8,0.5l-2.7-3.9l0.8-0.5l2.7,1l0-2.9l0.8-0.5l2.7,3.9l-0.8,0.5l-1.7-2.5
				l0,0l0,2.9L12.9,11.7z"/>
			<path fill="#FFFFFF" d="M20.7,6.1L22,5.9l3.1,4.3L24,10.4l-0.6-0.9L20.6,10L20.3,11l-1.1,0.2L20.7,6.1z M20.9,8.9l1.8-0.3
				l-1.2-1.7L20.9,8.9z"/>
			<path fill="#FFFFFF" d="M29.9,6.2c1.1,0.2,2.2,1,1.9,2.8c-0.3,1.5-1.5,2.2-2.9,1.9l-2.5-0.6l1-4.7L29.9,6.2z M27.4,9.6L29,10
				c0.8,0.2,1.5-0.2,1.7-1.1c0.2-1.1-0.4-1.5-1.1-1.7l-1.6-0.4L27.4,9.6z"/>
			<path fill="#FFFFFF" d="M38.9,10.8l-0.6,0.8l-2.7-1.9l-0.5,0.7l1.4,1l-0.5,0.8l-1.4-1L34.1,12l2.8,2l-0.6,0.8l-3.5-2.5l2.7-3.9
				L38.9,10.8z"/>
		</g>
		<g>
			<path fill="#FFFFFF" d="M22.2,15.2v4.7h-0.9v-4.7H22.2z"/>
			<path fill="#FFFFFF" d="M24.6,15.2h0.9l2.6,3.2h0v-3.2H29v4.7h-0.9l-2.6-3.2h0v3.2h-0.9V15.2z"/>
		</g>
	</g>
	<g>
		<path fill="#FFFFFF" d="M45,4.1h-0.4V4c0-0.2-0.1-0.3-0.3-0.3c-0.2,0-0.3,0.2-0.3,0.4c0,0.2,0,0.3,0.2,0.4l0.3,0.1
			C45,4.7,45,4.9,45,5.3c0,0.5-0.2,0.8-0.7,0.8c-0.4,0-0.7-0.3-0.7-0.7V5.3H44v0.1c0,0.1,0.1,0.3,0.3,0.3c0.3,0,0.3-0.2,0.3-0.4
			c0-0.3,0-0.4-0.2-0.4l-0.3-0.1c-0.4-0.1-0.4-0.4-0.4-0.7c0-0.4,0.2-0.8,0.7-0.8c0.4,0,0.7,0.3,0.7,0.6V4.1z"/>
		<path fill="#FFFFFF" d="M45.5,3.3h0.4l0.5,1.5h0L47,3.3h0.4v2.9H47V4.4h0l-0.4,1.2h-0.2L46,4.4h0v1.7h-0.4V3.3z"/>
	</g>
</g>
</svg>
